src/lib/packages/icons/src/assets/filled/cloud-slash.svg

<svg width="24" height="24" viewBox="0 0 24 24" fill="none" xmlns="http://www.w3.org/2000/svg">
<path d="M21.5301 3.53005L3.53005 21.5301C3.38405 21.6761 3.19202 21.75 3.00002 21.75C2.80802 21.75 2.61599 21.6771 2.46999 21.5301C2.17699 21.2371 2.17699 20.762 2.46999 20.469L5.98391 16.955C4.18891 15.807 3.00002 13.791 3.00002 11.5C3.00002 7.91002 5.91002 5.00002 9.50002 5.00002C11.15 5.00002 12.6501 5.61002 13.7901 6.62002C14.2381 7.02102 14.6271 7.48001 14.9541 7.98501L20.47 2.46902C20.763 2.17602 21.238 2.17602 21.531 2.46902C21.823 2.76202 21.8231 3.23805 21.5301 3.53005ZM19.2151 9.17104C19.0961 9.07104 18.9159 9.08399 18.8069 9.19399L10.513 17.488C10.324 17.677 10.4581 18 10.7251 18H15.7859C18.3909 18 20.7151 16.1 20.9751 13.508C21.1481 11.776 20.4221 10.187 19.2151 9.17104Z" fill="currentColor"/>
</svg>

<svg xmlns="http://www.w3.org/2000/svg" width="24" height="24" fill="none"><path fill="currentColor" d="m21.53 3.53-18 18a.748.748 0 0 1-1.06 0 .75.75 0 0 1 0-1.061l3.514-3.514A6.466 6.466 0 0 1 3 11.5 6.5 6.5 0 0 1 9.5 5c1.65 0 3.15.61 4.29 1.62.448.401.837.86 1.164 1.365l5.516-5.516a.75.75 0 1 1 1.06 1.061Zm-2.315 5.641a.304.304 0 0 0-.408.023l-8.294 8.294a.3.3 0 0 0 .212.512h5.06c2.606 0 4.93-1.9 5.19-4.492a5.005 5.005 0 0 0-1.76-4.337Z"/></svg>
